!!!OTL: GUTER HIMMEL ICH MUSS SCHEIDEN
!!!ARE: Europa, Mitteleuropa, Deutschland, Hannover
!!!SCT: E0792A
!!!YEM: Copyright 1995, estate of Helmut Schaffrath.
**kern
*ICvox
*Ivox
*M4/4
*k[b-]
*F:
=1
{4c
4f
4d
4d
=2
4b-
4g
4a
4f}
=3
{4c
4c
4d
4d
=4
4b-
4e
4f
4r}
=5
{4c
4f
4d
4d
=6
4b-
4g
4a
4f}
=7
{4c
4c
4d
4d
=8
4b-
4e
4f
4r}
=9
{4.b-
8cc
4a
4f
=10
8a
8g
4g
4a
4f}
=11
{4.b-
8cc
4a
4f
=12
8a
8g
4g
4f
4r}
==
!!!AGN: Abschieds - Lied, Liebe
!!!ONB: ESAC (Essen Associative Code) Database: ERK2
!!!AMT: simple quadruple
!!!AIN: vox
!!!EED: Helmut Schaffrath
!!!EEV: 1.0
*-
